Hatter-kde/actions/24/view-institution.svg

<?xml version="1.0" encoding="UTF-8"?>
<svg width="24" height="24" viewBox="0 0 24 24" xmlns="http://www.w3.org/2000/svg">
 <defs id="defs3051">
  <style id="current-color-scheme" type="text/css">.ColorScheme-Text {
        color:#363636;
      }</style>
 </defs>
 <g transform="translate(1,1)">
  <path class="ColorScheme-Text" d="m11 3-8 4.623v0.375 1.002h1v1 8h-1v1h16v-1h-1v-8-1h1v-1.002-0.375l-8-4.623zm0 1.1562 6.6504 3.8418h-13.301l6.6504-3.8418zm-6 4.8438h2v1 8h-2v-8-1zm3 0h6v1 8h-1v-4h-4v4h-1v-8-1zm7 0h2v1 8h-2v-8-1z" fill="currentColor"/>
 </g>
</svg>

<svg xmlns="http://www.w3.org/2000/svg" viewBox="0 0 24 24" width="24" height="24">
  <defs id="defs3051">
    <style type="text/css" id="current-color-scheme">
      .ColorScheme-Text {
        color:#363636;
      }
      </style>
  </defs>
  <g transform="translate(1,1)">
    <path style="fill:currentColor;fill-opacity:1;stroke:none" d="M 11 3 L 3 7.6230469 L 3 7.9980469 L 3 9 L 4 9 L 4 10 L 4 18 L 3 18 L 3 19 L 19 19 L 19 18 L 18 18 L 18 10 L 18 9 L 19 9 L 19 7.9980469 L 19 7.6230469 L 11 3 z M 11 4.15625 L 17.650391 7.9980469 L 4.3496094 7.9980469 L 11 4.15625 z M 5 9 L 7 9 L 7 10 L 7 18 L 5 18 L 5 10 L 5 9 z M 8 9 L 14 9 L 14 10 L 14 18 L 13 18 L 13 14 L 9 14 L 9 18 L 8 18 L 8 10 L 8 9 z M 15 9 L 17 9 L 17 10 L 17 18 L 15 18 L 15 10 L 15 9 z " class="ColorScheme-Text"/>
  </g>
</svg>
